X:1
M:14/8
K:G
L:1/8
C:Paul Spencer
F |G2E3 DEG^GG E3D |C2A,3 G,A,CDC B,3^D |
F2E3 FAFED G3E |D2C3 B,A,G,CB, A,3B, |
D2F3 GFEDC B,3D |C2E3 FDGFD E4 |
F2G3 ABAGF G4 |F2E3 DEDCA, B,4 |C2D3 EFEDB, E4 |
